X:407
%%etbk:tnset id:119,pos:3,rep:3x,ant:
%%etbk:pldat 2016-07-26T15:31,2014-09-25T18:11,2013-05-21T15:45
T: Gan Ainm
Z: Piano Box Version by Martin Fleischmann
H: Created 2013-02-19 /  Last Modified 2013-02-19
S: Dieter Sieber
M: 2/4
L: 1/8
R: polka
K: Dmaj
|: "D"!5!d!3!A !2!F!3!A | !5!!3!d2 !3!dc/d/ | "A"!4!e!2!c !1!A!2!c | !4!e!3!f !4!gf/g/ | "D"!5!af !4!ge | !1!d!3!c !1!A!2!F | "A"!3!GB !4!A/B/A/G/ | "D"!2!F!1!D D2 :|
|: "D"!3!f>e fd | "A"!4!g>f ge | "D"!3!f>e fa | "A"!4!gf ef/g/ | "D"!5!af !4!ge | !1!d!3!c !1!A!2!F | "A"!3!GB !4!A/B/A/G/ | "D"!2!F!1!D D2 :|


